images/svg/icons/social/tuenti_hover.svg

<svg xmlns="http://www.w3.org/2000/svg" viewBox="0 0 40 40"><defs><style>.a{fill:#003b6a;}.b{fill-opacity:0.25;}.c{fill:#8ec9e8;stroke:#8cd1f3;stroke-width:0.09px;}</style></defs><title>tuenti_hover</title><rect class="a" width="40" height="40"/><rect class="b" width="40" height="40"/><path class="c" d="M13.07,11.67a6.51,6.51,0,0,1,3.85-1.27h6.15a6.56,6.56,0,0,1,6.48,6.17c0,3.45.07,6.9,0,10.34,0,0.9,0,1.79,0,2.69H18a8.55,8.55,0,0,1-3.09-.35,6.56,6.56,0,0,1-4.46-5.91V16.66a6.52,6.52,0,0,1,2.67-5h0Zm7.74,3.07a9.17,9.17,0,0,1,1.65,5,9.27,9.27,0,0,1-1.67,5.4c0.43,0.28.87,0.56,1.29,0.84a10.22,10.22,0,0,0,0-12.13l-1.27.88h0Zm-3.2,1.08a1.34,1.34,0,0,0,0,2.38,1.29,1.29,0,1,0,0-2.38h0ZM17.45,20.9c-0.33,1.38-.69,2.75-1,4.12h1.75c0.43-1.39.89-2.77,1.34-4.16-0.69,0-1.37,0-2.06,0h0Z"/></svg>

<?xml version="1.0" encoding="utf-8"?>
<!-- Generator: Adobe Illustrator 19.2.0, SVG Export Plug-In . SVG Version: 6.00 Build 0)  -->
<svg version="1.1" id="Layer_1" xmlns:sketch="http://www.bohemiancoding.com/sketch/ns"
	 xmlns="http://www.w3.org/2000/svg" xmlns:xlink="http://www.w3.org/1999/xlink" x="0px" y="0px" viewBox="0 0 40 40"
	 style="enable-background:new 0 0 40 40;" xml:space="preserve">
<style type="text/css">
	.st0{fill:#003B6A;}
	.st1{fill-opacity:0.3;}
	.st2{fill:#8EC9E8;stroke:#8CD1F3;stroke-width:9.375000e-02;}
</style>
<title>tuenti_hover</title>
<desc>Created with Sketch.</desc>
<g id="Page-1" sketch:type="MSPage">
	<g id="tuenti_hover" sketch:type="MSLayerGroup">
		<g id="bg">
			<g sketch:type="MSShapeGroup">
				<rect id="path-1" class="st0" width="40" height="40"/>
			</g>
			<g>
				<rect id="path-1_1_" class="st1" width="40" height="40"/>
			</g>
		</g>
		<path id="icon" sketch:type="MSShapeGroup" class="st2" d="M13.1,11.7c1.1-0.8,2.5-1.3,3.9-1.3c2.1,0,4.1,0,6.2,0
			c1.4,0,2.9,0.5,4,1.4c1.5,1.1,2.4,2.9,2.5,4.8c0,3.4,0.1,6.9,0,10.3c0,0.9,0,1.8,0,2.7H18c-1,0-2.1,0-3.1-0.4
			c-2.5-0.8-4.4-3.3-4.5-5.9v-6.7C10.5,14.7,11.5,12.8,13.1,11.7L13.1,11.7z M20.8,14.7c1,1.5,1.6,3.2,1.6,5
			c0.1,1.9-0.6,3.8-1.7,5.4c0.4,0.3,0.9,0.6,1.3,0.8c2.7-3.4,2.7-8.7,0-12.1C21.7,14.2,21.2,14.4,20.8,14.7L20.8,14.7z M17.6,15.8
			c-1,0.4-1,1.9,0,2.4c0.9,0.5,2-0.4,1.8-1.4C19.3,16,18.3,15.4,17.6,15.8L17.6,15.8z M17.4,20.9c-0.3,1.4-0.7,2.7-1,4.1
			c0.6,0,1.2,0,1.8,0c0.4-1.4,0.9-2.8,1.3-4.2C18.8,20.9,18.1,20.8,17.4,20.9L17.4,20.9z"/>
	</g>
</g>
</svg>
